**kern	**kern	**dynam
*part1	*part1	*part1
*staff2	*staff1	*
*I"Piano	*	*
*clefF4	*clefG2	*
*k[b-e-a-]	*k[b-e-a-]	*
=1	=1	=1
8GG	8r	mf
4E- 4F#X	4c^ 4e- 4an	.
8E- 8F#	8c 8e- 8a	.
=	=	=
8GG	8r	.
4E- 4G	4d-X^ 4e- 4b-	.
8E- 8G	8d- 8e- 8b-	.
=	=	=
8AAn	8r	.
4E-	4c^ 4f#X 4cc	.
8E-	8c 8f# 8cc	.
=	=	=
8AA-X	8r	.
4D 4A-	4c^ 4fn 4cc	.
8D 8A-	8c 8f 8cc	.
=	=	=
8E-^L	8r	.
8GGJ	8c^ 8g 8cc	.
8F^L	8r	.
8GGJ	8d-X^ 8a- 8dd-X	.
=	=	=
8F#X^L	8r	.
8GGJ	8dn^ 8an 8ddn	.
8G^L	8r	.
8GGJ	8d^ 8f 8bn	.
=	=	=
!	!LO:TX:b:i:t=animez	!
8C 8G	8c 8e- 8cc	.
8r	8r	.
4r	4r	.
=	=	=
*-	*-	*-
!!!system-decoration: {(s1,s2)}
